suite-common/icons/assets/icons/confetti.svg

<svg xmlns="http://www.w3.org/2000/svg" viewBox="0 0 27.29 27.26">
  <path fill-rule="evenodd" d="M13.855.044c-.173.056-.334.211-.447.43-.087.17-.091.259-.086 1.956.004 1.742.022 1.976.16 2.187.201.307.902.415 1.32.204.435-.219.412-.089.412-2.357V.478l-.104-.14c-.173-.229-.342-.301-.753-.32-.204-.009-.43.003-.502.026m9.081 1.001c-.371.088-.521.301-.625.883-.21 1.183-.566 1.714-1.304 1.944-.148.046-.542.102-.891.127q-1.972.14-2.917 1.399c-.586.78-.905 1.751-.864 2.638.013.294.038.394.13.53.167.247.42.354.84.354.635 0 .887-.253.979-.984.125-.981.52-1.581 1.213-1.84.184-.069.441-.11.877-.139 1.187-.081 1.958-.378 2.627-1.014.529-.502.876-1.092 1.115-1.895.11-.368.162-1.28.086-1.509-.14-.426-.675-.635-1.266-.494M8.051 4.911a2.4 2.4 0 0 0-.885.602c-.103.121-.255.446-.481 1.027a244 244 0 0 0-1.9 5.149 315 315 0 0 1-2.257 6.163c-.039.1-.222.612-.408 1.137-.186.526-.675 1.887-1.087 3.025C-.01 24.894-.012 24.9.009 25.402c.022.522.181.888.55 1.266.368.377.748.545 1.283.568.5.021.57 0 3.457-1.047 1.101-.4 2.482-.896 3.07-1.104a60 60 0 0 0 1.41-.514c.532-.213 4.093-1.51 5.731-2.089 1.856-.655 5.525-2.025 5.897-2.201.85-.402 1.293-1.591.907-2.429-.058-.125-.265-.411-.46-.637-.433-.498-9.097-9.192-10.857-10.894C9.508 4.882 9.476 4.86 8.762 4.835c-.38-.013-.506 0-.711.076m5.312 6.517c4.672 4.666 7.014 7.044 7.014 7.122 0 .043-.687.305-3.131 1.192l-1.289.468-4.458-4.459-4.459-4.458.753-2.065c.818-2.245.88-2.406.928-2.406.017 0 2.106 2.073 4.642 4.606m12.722-4.394c-.348.075-2.375.739-2.957.969-.667.264-.841.446-.841.879 0 .314.127.614.362.859.191.198.232.22.414.22.262 0 .8-.146 1.979-.537 1.443-.479 1.899-.667 2.061-.852.233-.264.245-.685.033-1.101-.136-.267-.284-.41-.487-.468-.185-.053-.166-.054-.564.031m-2.98 4.924c-.276.087-.492.254-.724.562-.095.125-.132.425-.083.657.042.196.13.297 1.211 1.382 1.175 1.18 1.502 1.451 1.752 1.451.204 0 .509-.167.758-.416.276-.276.347-.493.268-.822-.046-.192-.127-.306-.541-.756-.475-.518-1.948-1.931-2.091-2.006a1.05 1.05 0 0 0-.55-.052m-12.832 5.393c1.961 1.968 3.547 3.595 3.525 3.615-.08.072-4.281 1.594-4.401 1.594-.074 0-3.952-3.818-4.454-4.383l-.277-.313.105-.301c.12-.346 1.381-3.829 1.456-4.024l.05-.129.216.181c.119.099 1.82 1.791 3.78 3.76m-4.68 4.321c1.035 1.035 1.642 1.674 1.615 1.7-.071.066-5.007 1.826-5.122 1.826-.087 0 .025-.336 1.062-3.184l.682-1.876c.025-.069.058-.125.075-.125s.776.746 1.688 1.659"/>
</svg>

<svg xmlns="http://www.w3.org/2000/svg" viewBox="0 0 27.29 27.26"><path d="M13.855 0.044 C 13.682 0.100,13.521 0.255,13.408 0.474 C 13.321 0.644,13.317 0.733,13.322 2.430 C 13.326 4.172,13.344 4.406,13.482 4.617 C 13.683 4.924,14.384 5.032,14.802 4.821 C 15.237 4.602,15.214 4.732,15.214 2.464 L 15.214 0.478 15.110 0.338 C 14.937 0.109,14.768 0.037,14.357 0.018 C 14.153 0.009,13.927 0.021,13.855 0.044 M22.936 1.045 C 22.565 1.133,22.415 1.346,22.311 1.928 C 22.101 3.111,21.745 3.642,21.007 3.872 C 20.859 3.918,20.465 3.974,20.116 3.999 C 18.800 4.093,17.830 4.558,17.199 5.398 C 16.613 6.178,16.294 7.149,16.335 8.036 C 16.348 8.330,16.373 8.430,16.465 8.566 C 16.632 8.813,16.885 8.920,17.305 8.920 C 17.940 8.920,18.192 8.667,18.284 7.936 C 18.409 6.955,18.804 6.355,19.497 6.096 C 19.681 6.027,19.938 5.986,20.374 5.957 C 21.561 5.876,22.332 5.579,23.001 4.943 C 23.530 4.441,23.877 3.851,24.116 3.048 C 24.226 2.680,24.278 1.768,24.202 1.539 C 24.062 1.113,23.527 0.904,22.936 1.045 M8.051 4.911 C 7.739 5.027,7.364 5.282,7.166 5.513 C 7.063 5.634,6.911 5.959,6.685 6.540 C 6.210 7.769,5.259 10.344,4.785 11.689 C 4.154 13.477,3.006 16.614,2.528 17.852 C 2.489 17.952,2.306 18.464,2.120 18.989 C 1.934 19.515,1.445 20.876,1.033 22.014 C -0.010 24.894,-0.012 24.900,0.009 25.402 C 0.031 25.924,0.190 26.290,0.559 26.668 C 0.927 27.045,1.307 27.213,1.842 27.236 C 2.342 27.257,2.412 27.236,5.299 26.189 C 6.400 25.789,7.781 25.293,8.369 25.085 C 8.957 24.877,9.591 24.646,9.779 24.571 C 10.311 24.358,13.872 23.061,15.510 22.482 C 17.366 21.827,21.035 20.457,21.407 20.281 C 22.257 19.879,22.700 18.690,22.314 17.852 C 22.256 17.727,22.049 17.441,21.854 17.215 C 21.421 16.717,12.757 8.023,10.997 6.321 C 9.508 4.882,9.476 4.860,8.762 4.835 C 8.382 4.822,8.256 4.835,8.051 4.911 M13.363 11.428 C 18.035 16.094,20.377 18.472,20.377 18.550 C 20.377 18.593,19.690 18.855,17.246 19.742 L 15.957 20.210 11.499 15.751 L 7.040 11.293 7.793 9.228 C 8.611 6.983,8.673 6.822,8.721 6.822 C 8.738 6.822,10.827 8.895,13.363 11.428 M26.085 7.034 C 25.737 7.109,23.710 7.773,23.128 8.003 C 22.461 8.267,22.287 8.449,22.287 8.882 C 22.287 9.196,22.414 9.496,22.649 9.741 C 22.840 9.939,22.881 9.961,23.063 9.961 C 23.325 9.961,23.863 9.815,25.042 9.424 C 26.485 8.945,26.941 8.757,27.103 8.572 C 27.336 8.308,27.348 7.887,27.136 7.471 C 27.000 7.204,26.852 7.061,26.649 7.003 C 26.464 6.950,26.483 6.949,26.085 7.034 M23.105 11.958 C 22.829 12.045,22.613 12.212,22.381 12.520 C 22.286 12.645,22.249 12.945,22.298 13.177 C 22.340 13.373,22.428 13.474,23.509 14.559 C 24.684 15.739,25.011 16.010,25.261 16.010 C 25.465 16.010,25.770 15.843,26.019 15.594 C 26.295 15.318,26.366 15.101,26.287 14.772 C 26.241 14.580,26.160 14.466,25.746 14.016 C 25.271 13.498,23.798 12.085,23.655 12.010 C 23.538 11.949,23.228 11.920,23.105 11.958 M10.273 17.351 C 12.234 19.319,13.820 20.946,13.798 20.966 C 13.718 21.038,9.517 22.560,9.397 22.560 C 9.323 22.560,5.445 18.742,4.943 18.177 L 4.666 17.864 4.771 17.563 C 4.891 17.217,6.152 13.734,6.227 13.539 L 6.277 13.410 6.493 13.591 C 6.612 13.690,8.313 15.382,10.273 17.351 M5.593 21.672 C 6.628 22.707,7.235 23.346,7.208 23.372 C 7.137 23.438,2.201 25.198,2.086 25.198 C 1.999 25.198,2.111 24.862,3.148 22.014 C 3.498 21.051,3.805 20.207,3.830 20.138 C 3.855 20.069,3.888 20.013,3.905 20.013 C 3.921 20.013,4.681 20.759,5.593 21.672 " stroke="none" fill-rule="evenodd" fill="black"></path></svg>
